!!!COM: Music21
!!!OTL: slide_Ballydesmond--The
!!!OMV: slide_Ballydesmond--The
**kern
*clefG2
*k[f#]
*M12/8
=1
8eL
8f#
8gJ
4a
8b
4cc
8dd
4.ee
=
4g
8e
8eL
8d
8eJ
4g
8e
4d
8g
=
8eL
8f#
8gJ
4a
8b
4cc
8dd
4ee
8ff#
=
4.gg
8ddL
8ee
8ddJ
4b
8a
4a
8g
!!linebreak:original
=||
*M12/8
8eL
8f#
8gJ
4a
8b
4cc
8dd
4.ee
=
4g
8e
8eL
8d
8eJ
4g
8e
4d
8g
=
8eL
8f#
8gJ
4a
8b
4cc
8dd
4ee
8ff#
=
4.gg
8ddL
8ee
8ddJ
4b
8a
4.a
!!linebreak:original
=||
4.aa
4aa
8bb
4aa
8gg
4ee
8ff#
=
4.gg
8ggL
8ff#
8eeJ
8ddL
8ee
8ff#J
4gg
8dd
=
8eeL
8ff#
8ggJ
4aa
8bb
4aa
8gg
4ee
8ff#
=
4.gg
8ddL
8ee
8ddJ
4b
8a
4.a
!!linebreak:original
=||
4.aa
4aa
8bb
4aa
8gg
4ee
8ff#
=
4.gg
8ggL
8ff#
8eeJ
8ddL
8ee
8ff#J
4gg
8dd
=
8eeL
8ff#
8ggJ
4aa
8bb
4aa
8gg
4ee
8ff#
=
4.gg
8ddL
8ee
8ddJ
4b
8a
4.a
=||
*-
